svgs/sharp-light/calendar-lines.svg

<svg xmlns="http://www.w3.org/2000/svg" viewBox="0 0 448 512"><!--! Font Awesome Pro 6.6.0 by @fontawesome - https://fontawesome.com License - https://fontawesome.com/license (Commercial License) Copyright 2024 Fonticons, Inc. --><path d="M128 0l0 16 0 48 192 0 0-48 0-16 32 0 0 16 0 48 64 0 32 0 0 32 0 64 0 32 0 288 0 32-32 0L32 512 0 512l0-32L0 192l0-32L0 96 0 64l32 0 64 0 0-48L96 0l32 0zM416 192L32 192l0 288 384 0 0-288zm0-96L32 96l0 64 384 0 0-64zM96 352l16 0 128 0 16 0 0 32-16 0-128 0-16 0 0-32zm16-96l224 0 16 0 0 32-16 0-224 0-16 0 0-32 16 0z"/></svg>

<svg xmlns="http://www.w3.org/2000/svg" viewBox="0 0 448 512"><!--! Font Awesome Pro 6.4.0 by @fontawesome - https://fontawesome.com License - https://fontawesome.com/license (Commercial License) Copyright 2023 Fonticons, Inc. --><path d="M128 0V16 64H320V16 0h32V16 64h64 32V96v64 32V480v32H416 32 0V480 192 160 96 64H32 96V16 0h32zM416 192H32V480H416V192zm0-96H32v64H416V96zM96 352h16H240h16v32H240 112 96V352zm16-96H336h16v32H336 112 96V256h16z"/></svg>
